packages/icons/src/background-ci-step.svg

<svg viewBox="0 0 40 41" xmlns="http://www.w3.org/2000/svg"><g clip-rule="evenodd" fill="#4f5162" fill-rule="evenodd"><path d="m22.3498 2.73507c.1696.21671.131.52954-.0862.69874l-1.4857 1.15717c8.2219.42844 15.2192 7.63922 15.2192 16.01572 0 .2749-.2234.4978-.499.4978s-.499-.2229-.499-.4978c0-7.8058-6.5095-14.54332-14.1436-15.01396l1.3987 1.03722c.2212.16402.2672.47585.1028.6965s-.477.26657-.6982.10255l-2.623-1.94506c-.125-.09269-.1994-.23827-.2012-.39363-.0019-.15536.0691-.30266.1918-.39827l2.623-2.04301c.2173-.16919.5308-.13067.7004.08603zm-17.85373 17.24763c.27559 0 .499.2228.499.4978 0 7.8058 6.50943 14.5433 14.14363 15.0139l-1.3988-1.0372c-.2211-.164-.2672-.4758-.1028-.6965.1644-.2206.477-.2666.6982-.1025l2.623 1.945c.125.0927.1994.2383.2013.3937.0018.1553-.0691.3026-.1919.3982l-2.623 2.043c-.2172.1692-.5308.1307-.7004-.086s-.131-.5295.0862-.6987l1.4857-1.1572c-8.2218-.4284-15.21913-7.6392-15.21913-16.0157 0-.275.22341-.4978.499-.4978z"/><path d="m17.9966 10.0426c0-.55228.4478-1 1-1h2c.5523 0 1 .44772 1 1v1.2971c.0002.0004.0008.0016.0022.0034.0036.0043.0102.009.0194.011 1.0996.2409 2.127.6741 3.0452 1.2622.0079.005.0158.0063.0213.0058.0022-.0002.0035-.0007.0039-.0008l.9172-.9172c.3905-.3906 1.0237-.3906 1.4142 0l1.4142 1.4142c.3906.3905.3906 1.0237 0 1.4142l-.9169.9169c-.0001.0004-.0006.0017-.0008.0039-.0005.0056.0008.0135.0058.0214.5887.9188 1.0223 1.947 1.2633 3.0475.002.0092.0067.0158.0111.0194.0017.0015.0029.002.0033.0022h1.2981c.5523 0 1 .4477 1 1v2c0 .5523-.4477 1-1 1h-1.2983c-.0004.0002-.0016.0007-.0033.0022-.0044.0036-.0091.0101-.0111.0194-.2412 1.1006-.6749 2.129-1.2639 3.0479-.005.0079-.0063.0158-.0058.0213.0002.0023.0006.0035.0008.0039l.9181.9183c.3903.3905.3903 1.0235 0 1.414l-1.414 1.4145c-.3906.3906-1.0239.3906-1.4145 0l-.9187-.919c0-.0001 0 0 0 0-.0004-.0002-.0017-.0007-.0039-.0009-.0056-.0005-.0134.0008-.0213.0058-.9179.5877-1.9449 1.0206-3.044 1.2614-.0092.002-.0158.0067-.0194.0111-.0014.0017-.002.0029-.0022.0033v1.2976c0 .5523-.4477 1-1 1h-2c-.5522 0-1-.4477-1-1v-1.2974c-.0001-.0004-.0007-.0016-.0021-.0033-.0036-.0044-.0102-.0091-.0194-.0111-1.1005-.241-2.1288-.6745-3.0476-1.2633-.0079-.005-.0158-.0063-.0214-.0058-.0022.0002-.0035.0006-.0039.0008 0 0 .0001 0 0 0l-.9186.9186c-.3905.3906-1.0237.3906-1.4142 0l-1.4142-1.4142c-.3906-.3905-.3906-1.0237 0-1.4142l.9188-.9189c.0002-.0004.0007-.0017.0009-.0039.0005-.0055-.0008-.0134-.0058-.0213-.5881-.9182-1.0213-1.9457-1.2622-3.0452-.002-.0093-.0067-.0158-.0111-.0194-.0017-.0015-.0029-.002-.0033-.0022 0 0 .0001 0 0 0h-1.29641c-.55228 0-1-.4477-1-1v-2c0-.5523.44772-1 1-1h1.29621c.0004-.0002.0016-.0007.0034-.0022.0043-.0036.009-.0102.011-.0194.241-1.1003.6745-2.1285 1.2631-3.0472.005-.0079.0063-.0158.0058-.0214-.0002-.0022-.0006-.0034-.0008-.0038l-.9171-.9174c-.3904-.3905-.3904-1.0235 0-1.414l1.414-1.4144c.3906-.3907 1.0239-.3907 1.4144 0l.9173.9175s-.0001-.0001 0 0c.0003.0001.0016.0006.0039.0008.0055.0005.0134-.0008.0213-.0058.9185-.5884 1.9464-1.0217 3.0465-1.2626.0092-.002.0158-.0067.0194-.0111.0014-.0017.002-.0029.0021-.0033 0 0 0 .0001 0 0zm-3.0944 18.4219s.0001 0 0 0zm10.1852.0018c0-.0001 0 0 0 0zm-4.0908-18.4237h-2v1.2969c0 .493-.3541.892-.8076.9913-.9821.215-1.9001.6019-2.721 1.1277-.3911.2505-.9234.2185-1.2719-.13l-.9172-.9175-1.414 1.4144.9171.9173c.3484.3485.3803.8808.1298 1.2717-.5261.8211-.9131 1.7393-1.1282 2.7217-.0993.4536-.4982.8077-.9913.8077h-1.29621v2h1.29641c.493 0 .8919.3541.9913.8076.215.9816.6018 1.8992 1.1273 2.7198.2505.391.2185.9233-.13 1.2717l-.9188.9189 1.4142 1.4142.9186-.9186c.3485-.3485.8809-.3804 1.2719-.1299.8211.5262 1.7395.9133 2.722 1.1284.4535.0994.8076.4983.8076.9913v1.2974h2v-1.2976c0-.493.3541-.8919.8076-.9912.9812-.215 1.8984-.6015 2.7188-1.1267.391-.2504.9232-.2183 1.2716.1302l.9187.9189 1.4141-1.4144-.9181-.9183c-.3484-.3485-.3803-.8809-.1297-1.2719.5264-.8212.9137-1.7396 1.129-2.7222.0993-.4535.4982-.8076.9912-.8076h1.2983v-2h-1.2981c-.493 0-.892-.3541-.9913-.8077-.2151-.9825-.6022-1.9008-1.1284-2.7219-.2505-.391-.2186-.9234.1299-1.2719l.9169-.9169-1.4142-1.4142-.9172.9172c-.3484.3484-.8807.3804-1.2717.1299-.8205-.5255-1.7381-.9123-2.7198-1.1273-.4535-.0994-.8076-.4983-.8076-.9913zm-.9516 5.1075c-3.0596 0-5.54 2.4803-5.54 5.54 0 3.0596 2.4804 5.54 5.54 5.54 3.0597 0 5.54-2.4804 5.54-5.54 0-3.0597-2.4803-5.54-5.54-5.54zm-6.54 5.54c0-3.612 2.9281-6.54 6.54-6.54 3.612 0 6.54 2.928 6.54 6.54 0 3.6119-2.928 6.54-6.54 6.54-3.6119 0-6.54-2.9281-6.54-6.54z"/></g></svg>

<svg viewBox="0 0 40 41" xmlns="http://www.w3.org/2000/svg">
<path fill-rule="evenodd" clip-rule="evenodd" d="M22.3498 2.73507C22.5194 2.95178 22.4808 3.26461 22.2636 3.43381L20.7779 4.59098C28.9998 5.01942 35.9971 12.2302 35.9971 20.6067C35.9971 20.8816 35.7737 21.1045 35.4981 21.1045C35.2225 21.1045 34.9991 20.8816 34.9991 20.6067C34.9991 12.8009 28.4896 6.06338 20.8555 5.59274L22.2542 6.62996C22.4754 6.79398 22.5214 7.10581 22.357 7.32646C22.1926 7.54711 21.88 7.59303 21.6588 7.42901L19.0358 5.48395C18.9108 5.39126 18.8364 5.24568 18.8346 5.09032C18.8327 4.93496 18.9037 4.78766 19.0264 4.69205L21.6494 2.64904C21.8667 2.47985 22.1802 2.51837 22.3498 2.73507ZM4.49607 19.9827C4.77166 19.9827 4.99507 20.2055 4.99507 20.4805C4.99507 28.2863 11.5045 35.0238 19.1387 35.4944L17.7399 34.4572C17.5188 34.2932 17.4727 33.9814 17.6371 33.7607C17.8015 33.5401 18.1141 33.4941 18.3353 33.6582L20.9583 35.6032C21.0833 35.6959 21.1577 35.8415 21.1596 35.9969C21.1614 36.1522 21.0905 36.2995 20.9677 36.3951L18.3447 38.4381C18.1275 38.6073 17.8139 38.5688 17.6443 38.3521C17.4747 38.1354 17.5133 37.8226 17.7305 37.6534L19.2162 36.4962C10.9944 36.0678 3.99707 28.857 3.99707 20.4805C3.99707 20.2055 4.22048 19.9827 4.49607 19.9827Z" fill="#4F5162"/>
<path fill-rule="evenodd" clip-rule="evenodd" d="M17.9966 10.0426C17.9966 9.49032 18.4444 9.0426 18.9966 9.0426H20.9966C21.5489 9.0426 21.9966 9.49032 21.9966 10.0426V11.3397C21.9966 11.3397 21.9966 11.3397 21.9966 11.3397C21.9968 11.3401 21.9974 11.3413 21.9988 11.3431C22.0024 11.3474 22.009 11.3521 22.0182 11.3541C23.1178 11.595 24.1452 12.0282 25.0634 12.6163C25.0713 12.6213 25.0792 12.6226 25.0847 12.6221C25.0869 12.6219 25.0882 12.6214 25.0886 12.6213C25.0886 12.6213 25.0886 12.6213 25.0886 12.6213L26.0058 11.7041C26.3963 11.3135 27.0295 11.3135 27.42 11.7041L28.8342 13.1183C29.2248 13.5088 29.2248 14.142 28.8342 14.5325L27.9173 15.4494C27.9173 15.4494 27.9173 15.4494 27.9173 15.4494C27.9172 15.4498 27.9167 15.4511 27.9165 15.4533C27.916 15.4589 27.9173 15.4668 27.9223 15.4747C28.511 16.3935 28.9446 17.4217 29.1856 18.5222C29.1876 18.5314 29.1923 18.538 29.1967 18.5416C29.1984 18.5431 29.1996 18.5436 29.2 18.5438C29.2 18.5438 29.2 18.5438 29.2 18.5438H30.4981C31.0504 18.5438 31.4981 18.9915 31.4981 19.5438V21.5438C31.4981 22.0961 31.0504 22.5438 30.4981 22.5438H29.1998C29.1998 22.5438 29.1998 22.5438 29.1998 22.5438C29.1994 22.544 29.1982 22.5445 29.1965 22.546C29.1921 22.5496 29.1874 22.5561 29.1854 22.5654C28.9442 23.666 28.5105 24.6944 27.9215 25.6133C27.9165 25.6212 27.9152 25.6291 27.9157 25.6346C27.9159 25.6369 27.9163 25.6381 27.9165 25.6385C27.9165 25.6385 27.9165 25.6385 27.9165 25.6385L28.8346 26.5568C29.2249 26.9473 29.2249 27.5803 28.8346 27.9708L27.4206 29.3853C27.03 29.7759 26.3967 29.7759 26.0061 29.3853L25.0874 28.4663C25.0874 28.4662 25.0874 28.4663 25.0874 28.4663C25.087 28.4661 25.0857 28.4656 25.0835 28.4654C25.0779 28.4649 25.0701 28.4662 25.0622 28.4712C24.1443 29.0589 23.1173 29.4918 22.0182 29.7326C22.009 29.7346 22.0024 29.7393 21.9988 29.7437C21.9974 29.7454 21.9968 29.7466 21.9966 29.747C21.9966 29.747 21.9966 29.747 21.9966 29.747V31.0446C21.9966 31.5969 21.5489 32.0446 20.9966 32.0446H18.9966C18.4444 32.0446 17.9966 31.5969 17.9966 31.0446V29.7472C17.9966 29.7472 17.9966 29.7472 17.9966 29.7472C17.9965 29.7468 17.9959 29.7456 17.9945 29.7439C17.9909 29.7395 17.9843 29.7348 17.9751 29.7328C16.8746 29.4918 15.8463 29.0583 14.9275 28.4695C14.9196 28.4645 14.9117 28.4632 14.9061 28.4637C14.9039 28.4639 14.9026 28.4643 14.9022 28.4645C14.9022 28.4645 14.9023 28.4645 14.9022 28.4645L13.9836 29.3831C13.5931 29.7737 12.9599 29.7737 12.5694 29.3831L11.1552 27.9689C10.7646 27.5784 10.7646 26.9452 11.1552 26.5547L12.074 25.6358C12.0741 25.6358 12.074 25.6358 12.074 25.6358C12.0742 25.6354 12.0747 25.6341 12.0749 25.6319C12.0754 25.6264 12.0741 25.6185 12.0691 25.6106C11.481 24.6924 11.0478 23.6649 10.8069 22.5654C10.8049 22.5561 10.8002 22.5496 10.7958 22.546C10.7941 22.5445 10.7929 22.544 10.7925 22.5438C10.7925 22.5438 10.7926 22.5438 10.7925 22.5438H9.49609C8.94381 22.5438 8.49609 22.0961 8.49609 21.5438L8.49609 19.5438C8.49609 18.9915 8.94381 18.5438 9.49609 18.5438H10.7923C10.7923 18.5438 10.7923 18.5438 10.7923 18.5438C10.7927 18.5436 10.7939 18.5431 10.7957 18.5416C10.8 18.538 10.8047 18.5314 10.8067 18.5222C11.0477 17.4219 11.4812 16.3937 12.0698 15.475C12.0748 15.4671 12.0761 15.4592 12.0756 15.4536C12.0754 15.4514 12.075 15.4502 12.0748 15.4498C12.0748 15.4498 12.0748 15.4498 12.0748 15.4498L11.1577 14.5324C10.7673 14.1419 10.7673 13.5089 11.1577 13.1184L12.5717 11.704C12.9623 11.3133 13.5956 11.3133 13.9861 11.704L14.9034 12.6215C14.9034 12.6215 14.9033 12.6214 14.9034 12.6215C14.9037 12.6216 14.905 12.6221 14.9073 12.6223C14.9128 12.6228 14.9207 12.6215 14.9286 12.6165C15.8471 12.0281 16.875 11.5948 17.9751 11.3539C17.9843 11.3519 17.9909 11.3472 17.9945 11.3428C17.9959 11.3411 17.9965 11.3399 17.9966 11.3395C17.9966 11.3395 17.9966 11.3396 17.9966 11.3395V10.0426ZM12.074 25.6358C12.0741 25.6358 12.074 25.6358 12.074 25.6358ZM14.9022 28.4645C14.9022 28.4645 14.9023 28.4645 14.9022 28.4645ZM21.9966 29.747C21.9966 29.747 21.9966 29.747 21.9966 29.747ZM25.0874 28.4663C25.0874 28.4662 25.0874 28.4663 25.0874 28.4663ZM27.9165 25.6385C27.9165 25.6385 27.9165 25.6385 27.9165 25.6385ZM29.1998 22.5438C29.1998 22.5438 29.1998 22.5438 29.1998 22.5438ZM27.9173 15.4494C27.9173 15.4494 27.9173 15.4494 27.9173 15.4494ZM20.9966 10.0426L18.9966 10.0426V11.3395C18.9966 11.8325 18.6425 12.2315 18.189 12.3308C17.2069 12.5458 16.2889 12.9327 15.468 13.4585C15.0769 13.709 14.5446 13.677 14.1961 13.3285L13.2789 12.411L11.8649 13.8254L12.782 14.7427C13.1304 15.0912 13.1623 15.6235 12.9118 16.0144C12.3857 16.8355 11.9987 17.7537 11.7836 18.7361C11.6843 19.1897 11.2854 19.5438 10.7923 19.5438H9.49609V21.5438H10.7925C11.2855 21.5438 11.6844 21.8979 11.7838 22.3514C11.9988 23.333 12.3856 24.2506 12.9111 25.0712C13.1616 25.4622 13.1296 25.9945 12.7811 26.3429L11.8623 27.2618L13.2765 28.676L14.1951 27.7574C14.5436 27.4089 15.076 27.377 15.467 27.6275C16.2881 28.1537 17.2065 28.5408 18.189 28.7559C18.6425 28.8553 18.9966 29.2542 18.9966 29.7472V31.0446H20.9966V29.747C20.9966 29.254 21.3507 28.8551 21.8042 28.7558C22.7854 28.5408 23.7026 28.1543 24.523 27.6291C24.914 27.3787 25.4462 27.4108 25.7946 27.7593L26.7133 28.6782L28.1274 27.2638L27.2093 26.3455C26.8609 25.997 26.829 25.4646 27.0796 25.0736C27.606 24.2524 27.9933 23.334 28.2086 22.3514C28.3079 21.8979 28.7068 21.5438 29.1998 21.5438H30.4981V19.5438H29.2C28.707 19.5438 28.308 19.1897 28.2087 18.7361C27.9936 17.7536 27.6065 16.8353 27.0803 16.0142C26.8298 15.6232 26.8617 15.0908 27.2102 14.7423L28.1271 13.8254L26.7129 12.4112L25.7957 13.3284C25.4473 13.6768 24.915 13.7088 24.524 13.4583C23.7035 12.9328 22.7859 12.546 21.8042 12.331C21.3507 12.2316 20.9966 11.8327 20.9966 11.3397V10.0426ZM20.045 15.1501C16.9854 15.1501 14.505 17.6304 14.505 20.6901C14.505 23.7497 16.9854 26.2301 20.045 26.2301C23.1047 26.2301 25.585 23.7497 25.585 20.6901C25.585 17.6304 23.1047 15.1501 20.045 15.1501ZM13.505 20.6901C13.505 17.0781 16.4331 14.1501 20.045 14.1501C23.657 14.1501 26.585 17.0781 26.585 20.6901C26.585 24.302 23.657 27.2301 20.045 27.2301C16.4331 27.2301 13.505 24.302 13.505 20.6901Z" fill="#4F5162"/>
</svg>
